img/docs__mini.svg

<svg width="8" height="10" viewBox="0 0 8 10" fill="none" xmlns="http://www.w3.org/2000/svg">
<path d="M6.31328 2.29404C5.89552 2.29404 5.55544 1.97496 5.55544 1.58289V1.52588e-05H0.666684C0.300007 1.52588e-05 0 0.281567 0 0.625687V9.37433C0 9.71845 0.300007 10 0.666684 10H7.33332C7.69999 10 8 9.71845 8 9.37433V2.294L6.31328 2.29404ZM3.99994 7.53467L2.62499 6.24438L2.93919 5.94951L3.77772 6.73638V3.95707H4.22217V6.73618L5.06062 5.94931L5.37482 6.24419L3.99994 7.53467Z" fill="white"/>
</svg>

<svg width="8" height="10" fill="none" xmlns="http://www.w3.org/2000/svg"><path d="M6.313 2.294c-.417 0-.758-.319-.758-.711V0H.667C.3 0 0 .282 0 .626v8.748c0 .344.3.626.667.626h6.666C7.7 10 8 9.718 8 9.374v-7.08H6.313ZM4 7.534l-1.375-1.29.314-.294.839.786V3.957h.444v2.78l.839-.788.314.295L4 7.534Z" fill="#fff"/></svg>
